Obsidian-SemiLight/actions/16s/layer-next.svg

<svg viewBox="0 0 16 16" xmlns="http://www.w3.org/2000/svg"><path d="m5 2-3 3h9l3-3zm0 9-3 3h9l3-3z" fill="#4d4d4d"/><path d="m11 6.8-3 3.2-3-3.2.75-.8 2.25 2.4 2.25-2.4z" fill="#3daee9"/></svg>

<svg xmlns="http://www.w3.org/2000/svg" viewBox="0 0 16 16">
  <defs id="defs3051">
    <style type="text/css" id="current-color-scheme">
      .ColorScheme-Text {
        color:#4d4d4d;
      }
      .ColorScheme-Highlight {
        color:#3daee9;
      }
      </style>
  </defs>
  <path 
        style="fill:currentColor;fill-opacity:1;stroke:none"
        d="M 5,2 2,5 11,5 14,2 5,2 Z m 0,9 -3,3 9,0 3,-3 -9,0 z"
        class="ColorScheme-Text"
        />
  <path
        style="fill:currentColor;fill-opacity:1;stroke:none"
        d="M 11,6.8 8,10 5,6.8 5.75,6 8,8.4 10.25,6 Z"
        class="ColorScheme-Highlight"
      />
</svg>
